X:1
T:Title
%%score { 1 | 2 }
L:1/8
Q:1/4=100
M:2/4
K:F
V:1 treble nm="Grand Piano"
V:2 bass 
V:1
 FF FA | c2 c2 | cc BA | [EG]4 | [EG][EG] [EG][FA] | [GB]2 [Bd]2 | [Bd][Bd] [Ac][GB] | A4 | FF FA | %9
w: J.~H.~Ruebush * * *|||||||||
 c2 c2 | cc [GB][FA] | [EG]4 | [EG][EG] [CFA][CFA] | [CFc][CFc] [DFB][DFB] | [CFA]2 [B,EG]2 | %15
w: ||||||
 [A,F]4 |] %16
w: |
V:2
 [F,A,C][F,A,C] [F,A,C][F,CF] | [F,A,F]2 [F,A,F]2 | [F,A,F][F,A,F] [G,CE][F,CF] | [C,C]4 | %4
 [C,C][C,C] [C,C][C,C] | [C,C]2 [C,C]2 | [C,C][C,C] [C,C][C,C] | [F,CF]4 | %8
 [F,A,C][F,A,C] [F,A,C][F,CF] | [F,A,F]2 [F,A,F]2 | [F,A,F][F,A,F] [E,C][F,C] | [C,C]4 | %12
 [C,C][C,C] F,F, | A,,A,, B,,B,, | C,2 C,2 | F,4 |] %16

